X: 5
T: Girl With The Blue Dress On, The
Z: ceolachan
S: https://thesession.org/tunes/5762#setting17711
R: polka
M: 2/4
L: 1/8
K: Gmaj
df/e/ d/e/d/A/ | BG GF/G/ | AD F/E/D/F/ | AG G2 :|GB/d/ ge | fd fe/d/ | GB/d/ ge | fd fe/d/ | GB/d/ ge | fd fg | ad f/e/d/f/ | ag g |]
